X:1
T:Title
%%score ( 1 2 ) { 3 | 4 }
L:1/8
Q:1/4=120
M:4/4
K:G
V:1 treble nm="Grand Piano, Soprano"
V:2 treble 
V:3 bass nm="Choir Pad, Bass"
V:4 bass 
V:1
 [DB]2 [B,D]2 [_B,^C]2 [=B,D]2 | [CE]2 [Ec]2 [DB]3 [CA] | [B,G]8- | [B,G]6 z2 | %4
w: By~Robert~Harkness * * *||||
 [EG]2 [B,G]2 [EG]2 [DG]2 | [^CG]2 [CB]2 [CA]2 [CG]2 | A2- [FA-]2 [EA-]2 [FA-]2 | [CDA]6 z2 | %8
w: ||||
 [DB]2 [B,D]2 [_B,^C]2 [=B,D]2 | [CE]2 [Ec]2 [DB]3 [CA] | [B,G]8- | [B,G]6 z2 | [GA]2 [GA]6 | %13
w: |||||
 [G_B]2 [GB]6 | [GB]2 G2 [Gc]2 [GB]2 | [FB]6 [DA]2 | [DG]8 | [Fd]2 [Fc]2 [FB]2 [FA]2 | %18
w: |||||
 [F^G] [FA]3 [FB]3 [FA] | D8 | [CE] [CE]3 [EG]2 [Ec]2 | [Ge]8 | D3 D [DG]2 [GB]2 | [Gd]8 | %24
w: ||||||
 [^Gd]2 [GB]2 [Gd]2 [GB]2 | [^CB] [CE]3 [=CB]3 [B,B] | [B,G]8 | [GA]2 [GA]6 | [G_B]2 [GB]6 | %29
w: |||||
 [GB]2 G2 [Gc]2 [GB]2 | [FB]6 [DA]2 | [DG]8 |] %32
w: |||
V:2
 x8 | x8 | z2 D2 ^C2 =C2 | x8 | x8 | x8 | C8 | x8 | x8 | x8 | x8 | x8 | x8 | x8 | x8 | x8 | x8 | %17
 x8 | x8 | x8 | x8 | x8 | x8 | x8 | x8 | x8 | x8 | x8 | x8 | x8 | x8 | x8 |] %32
V:3
 G,,2 D,2 E,2 D,2 | C,B,, A,,2 D,2 F,2 | G,2 F,2 =F,2 E,2 | D,6 z2 | E,,2 B,,2 E,2 B,,2 | %5
 E,2 G,2 F,2 E,2 | F,2 A,2 G,2 A,2 | F,6 z2 | G,,2 D,2 E,2 D,2 | C,B,, A,,2 G,3 F, | %10
 G,2 C,2 B,,2 G,,2 | E,,6 E,2 | ^C2 C6 | ^C2 C6 | D2 B,2 E2 D2 | D6 C2 | B,8 | A,2 E2 D2 C2 | %18
 B, C3 D3 C | B,8 | G, G,3 C2 G,2 | C8 | B,3 B, B,2 D2 | B,8 | B,2 D2 B,2 D2 | G, G,3 F,3 F, | %26
 G,8 | ^C2 C6 | ^C2 C6 | D2 B,2 E2 D2 | D6 C2 | B,8 |] %32
V:4
 z8 | z8 | G,,8- | G,,6 z2 | z8 | A,,4 A,,4 | D,8- | D,6 z2 | z8 | z4 D,3 ^D, | z8 | z8 | E,2 E,6 | %13
 ^D,2 D,6 | D,2 D,2 D,2 D,2 | D,6 D,2 | G,8 | D,2 D,2 D,2 D,2 | D, D,3 D,3 D, | G,8 | %20
 C, C,3 C,2 C,2 | C,8 | G,3 G, G,2 G,2 | G,8 | E,2 E,2 E,2 E,2 | A,, A,,3 D,3 ^D, | E,8 | E,2 E,6 | %28
 ^D,2 D,6 | D,2 D,2 D,2 D,2 | D,6 D,2 | G,8 |] %32

